X:2
T:Dans Fisel
T:Da\~A{\textpm}s Fisel
R:reel
M:4/4
L:1/8
K:Bmin
|:"Bm"BA dc "Bm"de ~B2|"A"de cA "Bm"B2 ~B2|"D"(3ABc dc "Bm"de ~B2|"A"de cA "Bm"~B2 BA|
"Bm"Bf ef "Bm"ge ~f2|"A"(3efg ~a2 "Bm"(3gfe fd|"Bm"~B2 dc "Bm"de ~B2|"A"de cA "Bm"~B2 BA|
1 "Bm"Bf ef "D"ga ~f2|"A"(3efg ~a2 "Bm"(3gfe fd|"Bm"~B2 dc "Bm"de ~B2|"A"de cA "Bm"B4:||
2 "Bm"Bf ef "D"ga ~f2|"Bm"(3fef b3f ed|"Bm"~B2 dc "Bm"de ~B2|fe fa b2 z||
